teeny/solid/vue.svg

<svg width="15" height="15" viewBox="0 0 15 15" fill="none" xmlns="http://www.w3.org/2000/svg">
<path d="M2.71693 1H0.5C0.320967 1 0.155598 1.09572 0.0664289 1.25097C-0.0227402 1.40622 -0.0220988 1.59729 0.0681106 1.75194L7.06811 13.7519C7.15772 13.9055 7.32217 14 7.5 14C7.67783 14 7.84228 13.9055 7.93189 13.7519L14.9319 1.75194C15.0221 1.59729 15.0227 1.40622 14.9336 1.25097C14.8444 1.09572 14.679 1 14.5 1H12.2831L7.50004 8.97184L2.71693 1Z" fill="black"/>
<path d="M11.1169 1H8.191L7.50002 2.38197L6.80903 1H3.88312L7.50004 7.02819L11.1169 1Z" fill="black"/>
</svg>

<svg viewBox="0 0 15 15" xmlns="http://www.w3.org/2000/svg"><g><path d="M2.71 1H.49c-.18 0-.35.09-.44.25 -.09.15-.09.34 0 .5l6.99 11.99c.08.15.25.24.43.24 .17 0 .34-.1.43-.25l7-12c.09-.16.09-.35 0-.51 -.09-.16-.26-.26-.44-.26h-2.22L7.45 8.93 2.66.95Z"/><path d="M11.11 1H8.18l-.7 1.38 -.7-1.39H3.85l3.61 6.02L11.07.98Z"/></g></svg>
